packages/calcite-ui-icons/icons/content-inline-right-16.svg

<svg xmlns="http://www.w3.org/2000/svg" viewBox="0 0 16 16"><path fill="none" d="M0 0h16v16H0z"/><path d="M16 15H0v-1h16v1zm0-14H0v1h16V1zm0 3v8H9V4h7zm-1 1h-5v6h5V5zM7 4H0v1h7V4zm0 3H0v1h7V7zm0 3H0v1h7v-1z"/></svg>

<?xml version="1.0" encoding="UTF-8"?><svg id="icons" xmlns="http://www.w3.org/2000/svg" viewBox="0 0 16 16"><defs><style>.cls-1{fill:none;}</style></defs><rect class="cls-1" width="16" height="16"/><path d="M16,15H0v-1H16v1ZM16,1H0s0,1,0,1h16s0-1,0-1ZM16,4v8h-7V4h7ZM15,5h-5v6h5v-6ZM7,4H0s0,1,0,1h7s0-1,0-1ZM7,7H0S0,8,0,8h7s0-1,0-1ZM7,10H0s0,1,0,1h7s0-1,0-1Z"/></svg>
